X:9376
T:Le Canal En Octobre
M:4/4
L:1/8
C:Frederic Paris
R:Schottische
Z:Steve Mansfield
K:G
DGA|B3c cBAG|B3c cBAG|EFGB A3G|FGEF D2GA|B3c cBAG|B3c cBAG|EFGB A3G|1G4-
G
DGA:|
2G6dd|:d3c cBAG|d3c cBAG|EFGBA3G|FGEFD2Bc|d3c cBAG|d3ccBAG|EFGBA3G|
1G6dd:|2G4|


